Papirus-GTK/24x24/apps/xfce4-systray.svg

<svg height="24" viewBox="0 0 24 24" width="24" xmlns="http://www.w3.org/2000/svg"><path d="m3 3c-.554 0-1 .446-1 1v1 12h20v-12-1c0-.554-.446-1-1-1z" fill="#4ab3e4"/><path d="m3 21c-.554 0-1-.446-1-1v-3h20v3c0 .554-.446 1-1 1z" fill="#4d4d4d"/><path d="m3 3c-.554 0-1 .446-1 1v .5c0-.554.446-1 1-1h18c .554 0 1 .446 1 1v-.5c0-.554-.446-1-1-1z" fill="#fff" opacity=".1"/><circle cx="13" cy="19.49999" opacity=".2" r="1"/><circle cx="13" cy="18.99999" fill="#fff" opacity=".72000002" r="1"/><circle cx="16" cy="19.49999" opacity=".2" r="1"/><circle cx="16" cy="18.99999" fill="#fff" opacity=".72000002" r="1"/><circle cx="19" cy="19.49999" opacity=".2" r="1"/><circle cx="19" cy="18.99999" fill="#fff" opacity=".72000002" r="1"/><path d="m2 19.5v.5c0 .554.446 1 1 1h18c .554 0 1-.446 1-1v-.5c0 .554-.446 1-1 1h-18c-.554 0-1-.446-1-1z" opacity=".3"/></svg>

<?xml version="1.0" encoding="UTF-8" standalone="no"?>
<svg
   xmlns:dc="http://purl.org/dc/elements/1.1/"
   xmlns:cc="http://creativecommons.org/ns#"
   xmlns:rdf="http://www.w3.org/1999/02/22-rdf-syntax-ns#"
   xmlns:svg="http://www.w3.org/2000/svg"
   xmlns="http://www.w3.org/2000/svg"
   xmlns:sodipodi="http://sodipodi.sourceforge.net/DTD/sodipodi-0.dtd"
   xmlns:inkscape="http://www.inkscape.org/namespaces/inkscape"
   version="1.1"
   id="svg4222"
   viewBox="0 0 24 24"
   height="24"
   width="24"
   inkscape:version="0.91 r13725"
   sodipodi:docname="xfce4-systray.svg">
  <sodipodi:namedview
     pagecolor="#ffffff"
     bordercolor="#666666"
     borderopacity="1"
     objecttolerance="10"
     gridtolerance="10"
     guidetolerance="10"
     inkscape:pageopacity="0"
     inkscape:pageshadow="2"
     inkscape:window-width="1600"
     inkscape:window-height="843"
     id="namedview16"
     showgrid="false"
     inkscape:zoom="26.235026"
     inkscape:cx="12"
     inkscape:cy="12"
     inkscape:window-x="0"
     inkscape:window-y="0"
     inkscape:window-maximized="1"
     inkscape:current-layer="svg4222" />
  <defs
     id="defs4224" />
  <metadata
     id="metadata4227">
    <rdf:RDF>
      <cc:Work
         rdf:about="">
        <dc:format>image/svg+xml</dc:format>
        <dc:type
           rdf:resource="http://purl.org/dc/dcmitype/StillImage" />
        <dc:title />
      </cc:Work>
    </rdf:RDF>
  </metadata>
  <path
     style="fill:#4ab3e4;fill-opacity:1;stroke:none"
     d="M 3 3 C 2.446 3 2 3.446 2 4 L 2 5 L 2 17 L 22 17 L 22 5 L 22 4 C 22 3.446 21.554 3 21 3 L 3 3 z "
     id="rect4203" />
  <path
     style="fill:#4d4d4d;fill-opacity:1;stroke:none"
     d="M 3,21 C 2.446,21 2,20.554 2,20 l 0,-3 20,0 0,3 c 0,0.554 -0.446,1 -1,1 z"
     id="rect3328"
     inkscape:connector-curvature="0" />
  <path
     style="opacity:0.1;fill:#ffffff;fill-opacity:1;stroke:none"
     d="M 3,3 C 2.446,3 2,3.446 2,4 l 0,0.5 c 0,-0.554 0.446,-1 1,-1 l 18,0 c 0.554,0 1,0.446 1,1 L 22,4 C 22,3.446 21.554,3 21,3 Z"
     id="path3345"
     inkscape:connector-curvature="0" />
  <circle
     r="1"
     cy="19.49999"
     cx="13"
     id="circle4144"
     style="opacity:0.2;fill:#000000;fill-opacity:1;stroke:none;stroke-width:2;stroke-linecap:round;stroke-linejoin:round;stroke-miterlimit:4;stroke-dasharray:none;stroke-opacity:1" />
  <circle
     style="opacity:0.72000002;fill:#ffffff;fill-opacity:1;stroke:none;stroke-width:2;stroke-linecap:round;stroke-linejoin:round;stroke-miterlimit:4;stroke-dasharray:none;stroke-opacity:1"
     id="path4136"
     cx="13"
     cy="18.99999"
     r="1" />
  <circle
     style="opacity:0.2;fill:#000000;fill-opacity:1;stroke:none;stroke-width:2;stroke-linecap:round;stroke-linejoin:round;stroke-miterlimit:4;stroke-dasharray:none;stroke-opacity:1"
     id="circle4146"
     cx="16"
     cy="19.49999"
     r="1" />
  <circle
     r="1"
     cy="18.99999"
     cx="16"
     id="circle4140"
     style="opacity:0.72000002;fill:#ffffff;fill-opacity:1;stroke:none;stroke-width:2;stroke-linecap:round;stroke-linejoin:round;stroke-miterlimit:4;stroke-dasharray:none;stroke-opacity:1" />
  <circle
     r="1"
     cy="19.49999"
     cx="19"
     id="circle4148"
     style="opacity:0.2;fill:#000000;fill-opacity:1;stroke:none;stroke-width:2;stroke-linecap:round;stroke-linejoin:round;stroke-miterlimit:4;stroke-dasharray:none;stroke-opacity:1" />
  <circle
     style="opacity:0.72000002;fill:#ffffff;fill-opacity:1;stroke:none;stroke-width:2;stroke-linecap:round;stroke-linejoin:round;stroke-miterlimit:4;stroke-dasharray:none;stroke-opacity:1"
     id="circle4142"
     cx="19"
     cy="18.99999"
     r="1" />
  <path
     style="fill:#000000;fill-opacity:1;stroke:none;opacity:0.3"
     d="M 2 19.5 L 2 20 C 2 20.554 2.446 21 3 21 L 21 21 C 21.554 21 22 20.554 22 20 L 22 19.5 C 22 20.054 21.554 20.5 21 20.5 L 3 20.5 C 2.446 20.5 2 20.054 2 19.5 z "
     id="path4166" />
</svg>
